X:1
T:Prelude
T:Prélude
T:Johann Sebastian Bach (1685-1750)
T:Transcr.: Andres Segovia
T:in A Minor for Solo Guitar
C:Johann Sebastian Bach (1685-1750)
%%score ( 1 2 )
L:1/8
Q:1/4=60
M:2/2
K:C
V:1 treble-8 nm="Klassieke gitaar" snm="Git."
V:2 treble-8 
V:1
"^Andante,""_flag. XII" z (!1!A/!3!B/) !4!c!0!e (!3!^g!4!a) z !4!a | %1
 z (!1!A/!3!B/) !4!c!0!e (!3!^g!4!a) z !4!a | z (!1!A/!3!B/) !4!c!0!e (^ga) z !4!a | %3
 z/ (!4!g/!1!f/)!0!e/ (!3!d/!1!c/)!0!B/!2!A/ (!1!^G/!2!A/)!4!B/!3!F/ !2!E!4!d | %4
 (!1!c/!0!B/)!2!A z/ (!1!^G/!2!A/)!0!B/ !1!c/!0!e/(!4!d/!1!c/) (!1!f/!0!e/)!4!d/!1!c/ | %5
 !4!d/!1!f/!0!G z/ !2!A/(!0!B/!1!c/) !3!d/(!1!f/!0!e/)!3!d/ (!4!g/!1!f/)!0!e/!4!d/ | %6
 (!0!e/!4!d/)!0!e/!4!g/ !0!B/!2!A/!0!B/!4!g/ (!1!c/!0!B/)!1!c/!4!g/ (!3!d/!1!c/)!4!d/!1!f/ | %7
 !0!e/!4!d/!0!e/!1!c/ !0!e/!0!B/!0!e/!1!A/ !1!^G/!4!^F/"^I"!1!G/!1!=f/ !1!G/!0!e/!1!G/!4!d/ | %8
 (!1!c/!0!B/)!1!c/!0!e/ !1!a!4!c'"^IV" z/ !2!e/ !1!^d-"^V" d/e/!-(!!4!^f/!-)!!4!g/ | %9
"^V" !1!a/!1!c/!0!B- B/(!1!^c/!4!^d/)!0!e/ !4!^f/!2!^G/!3!A- A/(!1!=c/!0!B/)!3!A/ | %10
 !0!=G/!0!B/(!0!e/!4!^d/) !0!e/(!0!B/!1!c/)!4!^A/ (!0!B/!4!d/)(!2!^f/!0!e/) !3!f/(!0!B/!1!c/)!4!^A/ | %11
 !0!B/!0!e/!4!g/!3!^f/ !4!g/!0!B/!1!c/!3!^A/ !0!B/!2!f/!4!a-"^II" a/!4!c/!3!B/!1!!1!=A/ | %12
 !0!G/!0!B/!0!e/!-(!!2!^f/ !-)!!2!g"^II"T!1!f !0!e/!2!A/!1!^G- G/(!0!B/!1!c/)!4!d/ | %13
 !1!c/!3!=F/!2!E- E/!0!=G/!2!A/!4!B/ !4!A/!3!E/!1!^D"^VII" z/ !2!c'/!1!b/!4!a/ | %14
 (!2!g/!4!a/)(!1!b/!0!e/) !4!g/!2!^f/!0!e/!4!^d/ !0!e/!3!g/!2!^A- A/!1!^c/!0!B/!2!A/ | %15
 (!0!B/!2!^c/)(!4!^d/!0!e/) !4!^f"^II"!3!A !0!G!0!e!3!^F!4!d | %16
 z (!1!E/!3!^F/) !4!G!0!B (!3!^d!4!e) z !4!e | z (!1!E/!3!^F/) !4!G!0!B (!3!^d!4!e) z !4!e | %18
 z (!1!E/!3!^F/) !4!G!0!B (!3!^d!4!e) z !4!e | %19
 z/ (!4!d/!1!c/)!0!B/ (!2!A/!0!G/)!4!^F/!1!E/ !1!^D/!3!E/!4!F/!3!C/ !2!B,!3!A | %20
 (!0!G/!4!^F/)!2!E z/ (!1!^D/!2!E/)!4!F/ !0!G/!0!B/(!2!A/!0!G/) (!1!c/!0!B/)(!2!A/!0!G/) | %21
 !3!A/!2!c/(!0!B/!3!A/) (!1!^G/!2!A/)!0!B/!1!c/ !4!=d/(!1!=f/!0!e/)!-(!!4!d/ (!-)!!4!e/!1!d/)!3!c/!0!B/ | %22
 (!1!c/!0!B/)!2!A z/ (!1!^G/!2!A/)!0!B/ !1!c/!0!e/(!4!d/!1!c/) (!1!f/!0!e/)!4!d/!1!c/ | %23
 !4!d/(!1!f/!0!e/)!4!d/ (!1!^c/!2!d/)!1!e/!-(!!2!f/ !-)!!4!g/!2!_b/!1!a/!4!g/ (!4!a/!1!g/)!4!f/!3!e/ | %24
 (!2!f/!1!e/)!2!f/!1!a/ (!1!^c/!0!B/)!1!c/!4!a/ (!3!d/!1!c/)!3!d/!4!a/ (!3!e/!1!d/)!3!e/!1!g/ | %25
 (!4!f/!3!e/)!1!d/!-(!!1!e/ !-)!!2!f/!3!d/!2!f/!1!c/ (!2!_B/!1!A/)!2!B/!4!a/ !2!B/!3!g/!2!B/!1!f/ | %26
 (!0!e/!4!d/)!1!c/!4!d/ !0!e/!1!c/!0!e/!4!_B/ (!2!A/!0!G/)!2!A/!4!g/ !2!A/!1!f/!2!A/!0!e/ | %27
"^I" (!4!d/!1!c/)!4!_B/!1!c/ !4!d/!3!B/!4!d/!2!A/ (!4!G/!2!F/)!0!G/!1!f/ !0!G/!0!e/!0!G/!4!d/ | %28
 (!2!^c/!0!B/)!2!A z/ (!1!E/!2!F/!4!G/) (!arpeggio!!3!^C/(!1!_B/!1!A/)!0!G/ !0!e/)!0!G/(!3!F/!1!E/) | %29
 !arpeggio!!2!F/(!1!A/!0!G/)!2!F/ !3!d/(!2!F/!1!E/)!0!D/ !arpeggio!!3!^C/(!1!_B/!1!A/)!0!G/ !0!e/!0!G/(!3!F/!1!E/) | %30
 !2!F/(!1!A/!0!G/)!3!F/ !4!d/!3!F/(!2!E/!0!D/) (!1!_E/!4!F/)!1!E/!0!D/"^I" !1!E/!1!_A/!0!G/!4!^F/ | %31
 !0!G/!2!_A/!0!G/!4!^F/ !0!G/!4!_e/!4!d/!2!^c/ !4!d!2!=A (!4!g/!1!f/)!0!=e/!4!d/ | %32
 !4!d!1!f/!3!d/ !2!A"^III"!1!_B z (!3!e/!4!f/) !3!a!4!_b | %33
 z !0!e/!3!c/ !4!^G"^II"A z (!3!^d/!4!e/) !3!^g!4!a | %34
 z/ (!4!=g/!1!f/)!0!e/ (!4!d/!1!c/)!0!B/!3!A/ (!1!^G/!2!A/)!4!B/!3!=F/ !2!E/(!4!d/!1!c/)!0!B/ | %35
 (!1!c/!0!B/)!1!c/!0!e/ (!3!^G/!1!^F/)!3!G/!0!e/ (!2!A/!1!G/)!2!A/!0!e/"^3/6II" (!3!B/!1!A/)!3!B/!2!d/ | %36
 (!4!c/!3!B/)!1!A/!0!B/ (!4!c/!3!A/)!4!c/!0!=G/ (!2!=F/!1!E/)!3!F/!0!e/ !3!F/!4!d/!3!F/!1!c/ | %37
 !0!B/!2!A/(!0!G/!2!A/) !0!B/!0!G/!0!B/!4!F/ (!2!E/!0!D/)!2!E/!4!d/ !2!E/!1!c/!2!E/!0!B/ | %38
 (!2!A/!0!G/)!3!F/!0!G/"^II" !1!A/!2!F/!1!A/!1!E/ (!3!^D/!1!^C/)!3!D/!1!=c/ !1!D/!0!B/!1!D/!4!A/ | %39
 !1!^G/(!2!=f/!0!e/)!3!d/ !4!b/(!2!f/!1!e/)!3!d/ !2!G/!3!f/!1!e/!3!d/ !4!b/(!2!f/!1!e/)!3!d/ | %40
 !-(!!2!^c/(!-)!!2!_B/!1!A/)!0!G/ !0!e/(!2!B/!1!A/)!0!G/ !3!^C/(!2!B/!1!A/)!0!G/ !0!e/(!2!B/!1!A/)!0!G/ | %41
 !2!^F/!1!_e/!1!d/!3!=c/ !4!a/(!2!e/!1!d/)!3!c/ !2!!2!^F/!1!e/!1!d/!3!c/ !4!a/(!2!e/!1!d/)!3!c/ | %42
 !0!=B/(!1!_A/!0!G/)!3!=F/ !4!d/(!1!A/!0!G/)!3!F/ !2!B,/(!1!A/!0!G/)!3!F/ !4!d/(!1!A/!0!G/)!3!F/ | %43
 !2!E/!1!_d/!1!c/!3!_B/ !4!g/(!2!d/!1!c/)!3!B/ !2!=E/!3!d/!1!c/!3!B/ !4!g/(!2!d/!1!c/)!-(!!3!B/ | %44
 (!-)!!3!=A/!0!G/)!3!A/!4!^c/ !4!d!1!f- f/!3!A/!1!^G- G/!3!A/(!0!B/!2!=c/) | %45
 !2!d/!1!F/!1!E- E/!4!^F/!1!^G/!3!A/ !0!B/!4!^C/!0!D- D/!2!=F/!1!E/!0!D/ | %46
 !2!C/!1!E/(!2!A/!1!^G/) !2!A/!1!E/(!3!F/!1!^D/) !2!E/!1!G/!0!B/!2!A/ !0!B/!2!E/(!3!F/!1!^D/) | %47
 !2!E/!3!A/(!1!c/!0!B/) !1!c/!2!E/(!3!F/!1!^D/) !1!E/!4!B/!2!=d- d/!2!f/!1!e/!3!d/ | %48
 !1!c/!0!e/!4!a/!1!b/ !2!c'"^VII"{!1!b!2!c'}!1!b !4!a/!1!d/!2!^c- c/(!1!e/!2!f/)!4!g/ | %49
 !2!f/!4!_B/!3!A-"^III" A/!3!=c/(!1!d/!4!e/) !4!d/!3!A/!1!^G- G/(!2!f/!0!e/)!4!d/ | %50
 (!1!c/!4!d/)!1!c/!0!B/ !3!c/!-(!!4!f/!-)!!4!e/!-(!!3!^d/ (!-)!!3!e/!4!f/)!3!e/!2!d/ !3!e/!4!_b/!3!a/!2!^g/ | %51
 !4!a!0!e (!4!d'/!2!c'/)"^VII"!1!b/!4!a/ !4!a/!1!b/!2!c'/!4!a/ (!2!c'/!1!b/)!4!a/!2!g/ | %52
 (!1!^f/!2!g/)!4!a/!1!f/ (!4!a/!2!g/)!1!f/!3!e/ !fermata!!2!!4![^da]2 z2 | %53
"^IV" !1!!2![Be^g]2 z/ !1!e/!3!^f/!1!^g/ !1!a/!3!b/!4!c'/!1!d'/ (!3!e'/!1!d'/)!4!f'/!3!e'/ | %54
 !1!d'/!4!c'/!3!b/!1!a/ (!4!^g/!1!=f/)!3!e/!1!d/ !3![Ac]!4!a!0!B!3!!2!!4![Bd^g] | %55
"^V" [cea]2 z2 z4 |] %56
V:2
 A,4 z2 !0!G2 | !2!F4 z2 !1!E2 | !0!D4 z2 !2!C2 | !0!D4 E,2 z2 | A,2 !3!C2 !3!F2 A,2 | %5
 !2!B,2 !0!D2 !0!G2 !2!B,2 | !3!C2 !3!F2 !2!E2 G2 | !3!C2 !3!C2 !2!B,2 E,2 | %8
 A,2 !0!G2 !1!^F2 !3!E2 | !2!^D2 !3!^F2 !1!^D2 !2!B,2 | !2!E2 !2!B,2 !1!^D2 !2!B,2 | %11
 !2!E2 !2!B,2 !1!^D2 !1!B,2 | !2!E!3!C!0!A,!1!B, !3!C2 !2!B,2 | !0!A,2 !3!G,2 !2!^F,2 !1!B,2 | %14
 E,!0!G!0!A,!1!B, !2!C!1!E!4!G!3!^C | !1!^D!3!^F!1!D!2!B, !1!E!2!=C!0!A,!1!B, | E,4 z2 !0!=D2 | %17
 !2!C2 z2 z2 !1!B,2 | A,2 z2 z2 !2!G,2 | A,2 z2 !2!B,2 z2 | E,2 !3!G,2 !3!C2 E,2 | %21
 !1!=F,2 !0!=D2 !2!B,2 !2!^G,2 | A,2 !3!C2 !3!F2 A,2 | !2!B,2 !0!G2 !3!E2 !2!^C2 | %24
 !0!D2 !0!G2 !2!F2 A,2 | !0!D2 !0!D2 !4!G!1!F!1!E!0!D | !3!C2 !3!C2 !3!F!1!E!0!D!3!C | %27
 !1!_B,!0!A,!2!G,!1!F, !0!E,!0!D!4!^C!2!E | !0!A,2 !0!A,2 !2!G,2 ^C2 | !0!A,2- A,2 !2!G,2 ^C2 | %30
 !4!D2 !1!F,2 !3!G,2 z !0!=A, | !1!_B,2 z E, !1!F,!0!D!0!A,!0!A, | %32
 D2 z (!3!D/!2!^C/) !0!D2 z !0!D | !1!=C2 z (!2!C/!1!B,/) !2!C2 z !1!C | !2!B,2 z2 E,2 z2 | %35
 A,2 !2!D2 !3!C2 !1!E2 | A,2 A,2 !4!D!2!C!2!B,A, | !3!G,2 !3!G,2 !3!C!1!B,!0!A,!3!G, | %38
 !1!F,E,!4!D!2!C !4!B,!2!A,!2!^F,!3!B, | E,4 E,4 | A,4 ^C4 | !3!D2 z2 ^F2 z2 | !2!G,4 =B,2 z2 | %43
 !3!C2 z2 E2 z2 | !1!F,2 !3!F2 !2!=B,2 !0!D2 | !3!^G,2 !2!B,2 E,2 !3!^G,2 | %46
 !4!A,2 E,2 !4!^G,2 E,2 | A,2 E,2 !3!^G,2 E,2 | A,!2!F!0!D!1!E !2!F z !3!E2 | %49
 !1!D2 !1!=C2 !2!B,2 E,2 | A,2 z !1!B, !1!C z z !0!D | !1!C!0!A,E,!1!E !3!!1!!2![^FA^d]2 z2 | %52
 !0!A,2 z2 !1!!3![B,^F]2 z2 | !0!D2 z2 z4 | z4 !0!A,!1!F!0!D!1!E | A,2 z2 z4 |] %56

